X: 121
T: A Bright May Morning
R: reel
M: 4/4
K: Gmajor
|dged B2 AG|(3FED AD BDAD|(3Bcd gd BGAF|DEGA BGBc|
dged BGAG|(3FED AD BDAD|dgec (3Bcd AF|DEGA BG G2||
gedB cBcd|eaag ae e2|gedc BGBd|eg g2 bg g2|
gedB cBcd|eaag aeef|gedc B2 A2|(3GBd ga bg g2||

